X:0
T:The Fairies Laugh
M:6/8
L:1/8
C:Rob Steinhofer
R:Jig
A:Milwaukee, WI
K:G
C|DAA BAG|c2B AGF|EFD CEG|cEF GCE|!
DAA BAG|c2d cAG|dec ABG|EDCD3:|!
B|:cBA d2B|c2E EAB|cBA BAG|E2D D3|!
cBA def|g2g edc|dec ABG|EDC D3:|!    Wedding in the Field e2A ABd|e2d eag|egd egd|edB edB|eAA ABd|e2d eag|egg age|d2b age:|
e2a abc'|bag ega|eab eac'|bag e2d|e2a abc'|bag e2d|egg age|d2b age:|     The Fly DFA dcd|BAF ~d2f|gfe age|dcA GFE|DFA dcd|BAF ~d2f|gfe age|cBA d3:|
fgf eAA|def eaa|gfe fed|efd cBA|fgf eAA|def eaa|gfe fed|cBA d3:|
T:Tuesday Evening Before Dinner
M:6/8
L:1/8
R:Jig
C:Thornton Rose
S:Thornton Rose
K:G
D | BAG E2D | G3 G2B | BAB d2B | A3 A2B | BAG E2A | AGE D2D |DEG AGE | G3 G2 :| B | BAB d2d | ege d2e |
dBA B2d | e3 e2g | age d2e |
